X: 42
T: La mi la sol
N: Derived from Ort3006-La_mi_la_sol.krn
C: Marbrianus de Orto
%%abc-version 2.0
%%abcx-abcm2ps-target-version 5.9.1 (29 Sep 2008)
%%abc-creator hum2abc beta
%%abcx-conversion-date 2019/02/17 07:28:38
%%abc-edited-by Jesse Rodin
%%abc-edited-by Jesse Rodin 8/6/2013
%%abcx-initial-encoding-date 2013/08/06/
%%humdrum-veritas 4221168692
%%humdrum-veritas-data 3351381524
%%linebreak <none>
%%barnumbers 0
L: 1/4
M: 2/1
Q: 1/2=120
%%staves [1 2 3 4]
V: 1 clef=treble
V: 2 clef=treble-8
V: 3 clef=treble-8
V: 4 clef=bass
K: C
[V:1] z8 | 
[V:2] e6A2 | 
[V:3] z8 | 
[V:4] z8 | 
[V:1] z4B4- | 
[V:2] A4e4 | 
[V:3] z8 | 
[V:4] z8 | 
[V:1] B2E2E4 | 
[V:2] d2c4BA | 
[V:3] z8 | 
[V:4] z8 | 
[V:1] B4A2c2- | 
[V:2] G4z2FG | 
[V:3] z4A4- | 
[V:4] z8 | 
[V:1] c2BAG4 | 
[V:2] ABc2B2e2- | 
[V:3] A2E2E4 | 
[V:4] z8 | 
[V:1] z2E4A2- | 
[V:2] edc2B2A2 | 
[V:3] A4G2F2- | 
[V:4] z4z2D,2- | 
[V:1] A2GFE4 | 
[V:2] z4z2A2- | 
[V:3] F2EDC4 | 
[V:4] D,2A,,2A,,4 | 
[V:1] F2E2F2G2 | 
[V:2] A2B4c2- | 
[V:3] D2G2F2E2 | 
[V:4] z2E,2D,2C,2- | 
[V:1] E3CD3E | 
[V:2] cde2B4 | 
[V:3] C4G4 | 
[V:4] C,2B,,A,,G,,4 | 
[V:1] FGABc4 | 
[V:2] c4z2A2- | 
[V:3] A8 | 
[V:4] F,,4A,,4 | 
[V:1] B4A2B2- | 
[V:2] A2G2A2E2 | 
[V:3] E4z4 | 
[V:4] z8 | 
[V:1] BEE2B4 | 
[V:2] z2A2G2d2- | 
[V:3] z8 | 
[V:4] z8 | 
[V:1] A3DD2G2- | 
[V:2] d2D2G3F/E/ | 
[V:3] z8 | 
[V:4] z8 | 
[V:1] G2FEA4 | 
[V:2] c3B/A/c2d2 | 
[V:3] z8 | 
[V:4] z8 | 
[V:1] G2E2F4 | 
[V:2] B2e4d2 | 
[V:3] z8 | 
[V:4] z8 | 
[V:1] E4z4 | 
[V:2] e8 | 
[V:3] A4E2A2- | 
[V:4] A,,8 | 
[V:1] z8 | 
[V:2] z8 | 
[V:3] A2G2F4 | 
[V:4] C,4D,4 | 
[V:1] z8 | 
[V:2] z8 | 
[V:3] E4c4- | 
[V:4] E,8 | 
[V:1] z8 | 
[V:2] z8 | 
[V:3] c2BAdcBA | 
[V:4] F,4F,4 | 
[V:1] B8 | 
[V:2] e6dc | 
[V:3] G6E2 | 
[V:4] E,8 | 
[V:1] G4A4 | 
[V:2] B2c4BA | 
[V:3] E4F4 | 
[V:4] z4A,,4 | 
[V:1] B8 | 
[V:2] d4e4 | 
[V:3] z2G6- | 
[V:4] G,,4E,,4 | 
[V:1] c4c4 | 
[V:2] c4A4 | 
[V:3] G2^FE^F4 | 
[V:4] A,,8 | 
[V:1] B8 | 
[V:2] d8 | 
[V:3] G8 | 
[V:4] G,,8 | 
[V:1] z8 | 
[V:2] z8 | 
[V:3] z8 | 
[V:4] z8 | 
[V:1] B4B4 | 
[V:2] B3cd2e2- | 
[V:3] G4B4 | 
[V:4] G,4G,4 | 
[V:1] A4G4 | 
[V:2] e2d2e4 | 
[V:3] c2A2B3c | 
[V:4] F,4E,4 | 
[V:1] A4c4 | 
[V:2] f4e4 | 
[V:3] d2D2E2A2- | 
[V:4] D,4C,4 | 
[V:1] d8 | 
[V:2] d8 | 
[V:3] A2^G^F^G4 | 
[V:4] B,,8 | 
[V:1] c8 | 
[V:2] z4e4 | 
[V:3] A8 | 
[V:4] A,,8 | 
[V:1] z4c4 | 
[V:2] d2c4BA | 
[V:3] z8 | 
[V:4] z8 | 
[V:1] B6AG | 
[V:2] G2EFGABc | 
[V:3] z8 | 
[V:4] z8 | 
[V:1] F2E2c2B2- | 
[V:2] d2e2A2e2 | 
[V:3] z8 | 
[V:4] z8 | 
[V:1] B2AGA4 | 
[V:2] d2e2c4 | 
[V:3] z8 | 
[V:4] z8 | 
[V:1] B4z4 | 
[V:2] B4z4 | 
[V:3] z2G2F2G2- | 
[V:4] E,2E,2D,2E,2 | 
[V:1] z8 | 
[V:2] z8 | 
[V:3] GEc2d2c2- | 
[V:4] C,4B,,2E,2 | 
[V:1] z8 | 
[V:2] z8 | 
[V:3] cBB4A2 | 
[V:4] D,2E,2C,4 | 
[V:1] d4c2B2- | 
[V:2] z4z2d2 | 
[V:3] B3GA2G2- | 
[V:4] B,,4z2B,,2 | 
[V:1] B2AGA2B2 | 
[V:2] B2c2d4 | 
[V:3] G2FEF2D2 | 
[V:4] E,4D,2B,,2 | 
[V:1] G2A4GF | 
[V:2] z2c6- | 
[V:3] E4F2E2- | 
[V:4] C,B,,A,,G,,F,,2C,2- | 
[V:1] G2A2E2F2 | 
[V:2] c2c4A2 | 
[V:3] ECFEA2F2 | 
[V:4] C,2A,,4D,2 | 
[V:1] E2F2D2G2- | 
[V:2] c2d2B4 | 
[V:3] G2D2G4 | 
[V:4] C,2B,,4G,,2 | 
[V:1] G2FEE2D2 | 
[V:2] z2c2A4 | 
[V:3] E4F4 | 
[V:4] C,4z4 | 
[V:1] E4z4 | 
[V:2] B4z4 | 
[V:3] E3FGAB2 | 
[V:4] z2G,4F,E, | 
[V:1] z8 | 
[V:2] z8 | 
[V:3] A2c4BA | 
[V:4] F,2E,2A,,B,,C,D, | 
[V:1] z8 | 
[V:2] z8 | 
[V:3] G2E2F2G2- | 
[V:4] E,F,G,2A,2E,2 | 
[V:1] z8 | 
[V:2] z8 | 
[V:3] G2E4D2 | 
[V:4] G,4F,4 | 
[V:1] z4z2D2- | 
[V:2] B3cd2B2 | 
[V:3] E4B4 | 
[V:4] E,2G,4G,,2 | 
[V:1] D2C2D3B, | 
[V:2] e4d4 | 
[V:3] A4D2G2 | 
[V:4] A,,4z2G,,2 | 
[V:1] C2D2B,2d2- | 
[V:2] z2B2d2B2- | 
[V:3] E2D2G3F | 
[V:4] A,,2B,,4G,,2 | 
[V:1] d2cBc2B2 | 
[V:2] B2d2A2B2 | 
[V:3] D4F2G2 | 
[V:4] B,,4z2G,,2 | 
[V:1] c2d2G2c2- | 
[V:2] A2G3Ee2 | 
[V:3] E2D2E3C | 
[V:4] A,,2B,,2C,4 | 
[V:1] cBBAc2G2 | 
[V:2] d4c4 | 
[V:3] G4z2E2 | 
[V:4] G,,4C,4 | 
[V:1] A2B2c2d2 | 
[V:2] A2d2c2B2 | 
[V:3] F2G2E2D2 | 
[V:4] z2G,,2A,,2B,,2 | 
[V:1] G2c2B2A2- | 
[V:2] e4d4- | 
[V:3] E2G4F2 | 
[V:4] C,4D,4 | 
[V:1] AGG4^F2 | 
[V:2] d4d4 | 
[V:3] G4A4 | 
[V:4] G,,4D,4 | 
[V:1] G4z4 | 
[V:2] B4z4 | 
[V:3] G4E3C | 
[V:4] z2G,,4A,,2 | 
[V:1] z8 | 
[V:2] z4A3B | 
[V:3] D2E2F4 | 
[V:4] B,,2C,2D,4 | 
[V:1] G4E3G | 
[V:2] c2B3GB2- | 
[V:3] E8 | 
[V:4] E,4z4 | 
[V:1] D2E2F4 | 
[V:2] B2e4d2 | 
[V:3] z8 | 
[V:4] z8 | 
[V:1] E4z2B2- | 
[V:2] e4A2d2 | 
[V:3] z2E2F2G2 | 
[V:4] z8 | 
[V:1] B2AGc2B2- | 
[V:2] e4f2g2- | 
[V:3] E4z2E2 | 
[V:4] z8 | 
[V:1] B2AGc2BA | 
[V:2] g2fee2d2 | 
[V:3] A4G4 | 
[V:4] z8 | 
[V:1] G4z4 | 
[V:2] e2B2d4 | 
[V:3] E4F2G2 | 
[V:4] z4z2B,,2 | 
[V:1] z8 | 
[V:2] z4D4 | 
[V:3] E2B3cd2 | 
[V:4] C,2D,2B,,4 | 
[V:1] z8 | 
[V:2] E2D2F4 | 
[V:3] c2d3cB2 | 
[V:4] z2B,,2D,4 | 
[V:1] z8 | 
[V:2] G2E4D2 | 
[V:3] E2A4^G2 | 
[V:4] C,4B,,4 | 
[V:1] c4B2G2 | 
[V:2] E2A2B2c2 | 
[V:3] A4G2E2 | 
[V:4] A,,4E,4 | 
[V:1] A4D2G2 | 
[V:2] d2A2B3c | 
[V:3] F4G4 | 
[V:4] D,4z2E,2 | 
[V:1] F2E4G2- | 
[V:2] d2e2B4 | 
[V:3] A4G4 | 
[V:4] D,2C,2E,4 | 
[V:1] G2FEF2G2 | 
[V:2] c6B2 | 
[V:3] E2G2A2E2 | 
[V:4] C,4z2E,2- | 
[V:1] E2A4D2 | 
[V:2] c2d2A2B2- | 
[V:3] z2F2E2G2- | 
[V:4] E,2D,2C,2B,,2 | 
[V:1] G3ABcd2- | 
[V:2] B2G3ABc | 
[V:3] GABcd3c | 
[V:4] E,4B,,4 | 
[V:1] dcBAGFE2- | 
[V:2] d2z2B2c2- | 
[V:3] BAGFE4 | 
[V:4] z2E,3D,C,B,, | 
[V:1] E2A3^GG^F | 
[V:2] cde4e2 | 
[V:3] c4B4 | 
[V:4] A,,4E,4 | 
[V:1] A4G2E2 | 
[V:2] c4B4 | 
[V:3] A2E4G2- | 
[V:4] A,,4E,3D, | 
[V:1] E4B4 | 
[V:2] c4d4 | 
[V:3] G2A2D2G2- | 
[V:4] C,B,,A,,2G,,4 | 
[V:1] B8 | 
[V:2] B4e4 | 
[V:3] G2E4G2- | 
[V:4] E,8 | 
[V:1] d8 | 
[V:2] z2d2B2d2- | 
[V:3] G2FED2G2 | 
[V:4] B,,8 | 
[V:1] A8 | 
[V:2] d2d2A4 | 
[V:3] F8 | 
[V:4] D,8 | 
[V:1] A4B4 | 
[V:2] z4D2E2 | 
[V:3] E4G4 | 
[V:4] A,,4G,,4 | 
[V:1] c8 | 
[V:2] F2G2A4 | 
[V:3] A4F4 | 
[V:4] F,,8 | 
[V:1] B8 | 
[V:2] G4z2d2 | 
[V:3] D4G4 | 
[V:4] G,,4E,,4 | 
[V:1] E4G4 | 
[V:2] c3de3d | 
[V:3] A4B4 | 
[V:4] z4E,,4 | 
[V:1] A6GF | 
[V:2] cBA4d2 | 
[V:3] A2c4BA | 
[V:4] F,,3G,,A,,2B,,2 | 
[V:1] E2D2G4 | 
[V:2] c2A2c2B2- | 
[V:3] G2F2E4 | 
[V:4] C,2D,2E,4 | 
[V:1] F2E2E4- | 
[V:2] BAA4G2 | 
[V:3] c4B4 | 
[V:4] A,,4E,4 | 
[V:1] E4D4 | 
[V:2] A4z2A2 | 
[V:3] A4z2A2- | 
[V:4] F,8 | 
[V:1] E8- | 
[V:2] B4c3B | 
[V:3] A2G2A2G2 | 
[V:4] E,4A,,2C,2- | 
[V:1] E8- | 
[V:2] G2ABc2B2 | 
[V:3] E8- | 
[V:4] C,B,,A,,G,,A,,2G,,2 | 
[V:1] E8 |]  
[V:2] B8 |]  
[V:3] E8 |]  
[V:4] E,,8 |]  



